svg/fluentui-system-icons/ic_fluent_table_simple_checkmark_32_filled.svg

<svg width="32" height="32" viewBox="0 0 32 32" fill="none" xmlns="http://www.w3.org/2000/svg">
<path d="M15 3H7.5C5.01472 3 3 5.01472 3 7.5V15H15V3ZM3 24.5V17H15V29H7.5C5.01472 29 3 26.9853 3 24.5ZM17 29V17H29V24.5C29 26.9853 26.9853 29 24.5 29H17ZM29 7.5V15H17V3H24.5C26.9853 3 29 5.01472 29 7.5ZM26.4571 21.9571C26.8476 21.5666 26.8476 20.9334 26.4571 20.5429C26.0666 20.1524 25.4334 20.1524 25.0429 20.5429L22 23.5858L20.7071 22.2929C20.3166 21.9024 19.6834 21.9024 19.2929 22.2929C18.9024 22.6834 18.9024 23.3166 19.2929 23.7071L21.2929 25.7071C21.6834 26.0976 22.3166 26.0976 22.7071 25.7071L26.4571 21.9571Z" fill="#212121"/>
</svg>

<svg xmlns="http://www.w3.org/2000/svg" width="32" height="32"><path d="M15 3H7.5A4.5 4.5 0 0 0 3 7.5V15h12V3ZM3 24.5V17h12v12H7.5A4.5 4.5 0 0 1 3 24.5ZM17 29V17h12v7.5a4.5 4.5 0 0 1-4.5 4.5H17ZM29 7.5V15H17V3h7.5A4.5 4.5 0 0 1 29 7.5Zm-2.543 14.457a1 1 0 0 0-1.414-1.414L22 23.586l-1.293-1.293a1 1 0 0 0-1.414 1.414l2 2a1 1 0 0 0 1.414 0l3.75-3.75Z"/></svg>
